X:1
T:Innsbruck, ich muss dich lassen
T:Innsbruck, ich muss dich lassen
T:Heinrich Isaak (1450-1517)
C:Heinrich Isaak (1450-1517)
%%score [ 1 2 3 4 ]
L:1/8
M:4/4
K:F
V:1 treble nm="Soprano"
V:2 treble nm="Alto"
V:3 treble-8 nm="Tenor"
V:4 bass nm="Bass"
V:1
 z4 F4 | F2 G2 A4 | c4 B4 | A4 z2 A2 | c3 B G4 | A4 F4 | E4 z2 F2 | G2 F2 E2 F2 | G4 z2 G2 | %9
w: 1.Inns-|bruck, ich muss|dich las-|sen, ich|fahr da- hin|mein Stra-|ßen, in|frem- de Land da-|hin. Mein|
w: 2.Groß|Leid muss ich|jetzt tra-|gen, das|ich al- lein|tu kla-|gen dem|liebs- ten Buh- len|mein. Ach|
w: 3.Mein|Trost ob al-|len Wei-|ben, dein|tu ich e-|wig blei-|ben, stet,|treu, der Eh- ren|fromm. Nun|
 F2 G2 A4 | c4 B4 | A4 z2 A2 | c3 B G4 | A4 F4 | E4 z2 E2 | F2 G2 A4 | B3 AGF G2- | GF F4 E2 | %18
w: Freud ist mir|ge- nom-|men, die|ich nit weiß|be- kom-|men, wo|ich im E-||* * * lend|
w: Lieb, nun lass|mich Ar-|men im|Her- zen dein|er- bar-|men, wo|ich im E-||* * * lend|
w: muss dich Gott|be- wah-|ren in|al- ler Tu-|gend spa-|ren, bis|dass ich wie-||* * * der|
 F4 z2 E2 | F2 G2 A4 | B3 AGF G2- | GF F4 E2 | F4 z4 |] %23
w: bin, wo|ich im E-||* * * lend|bin.|
w: bin. wo|ich im E-||* * * lend|bin.|
w: komm, bis|dass ich wie-||* * * der|komm.|
V:2
 C8 | D2 E2 F4 | C2 F4 E2 | F4 z2 C2 | A,2 A,2 B,4 | A,2 A,4 G,F, | G,4 z2 D2 | D2 D2 C2 D2 | %8
w: 1.Inss-|bruck, ich muss|dich las- *|sen, ich|fahr da- hin|mein Stra- * *|ßen, in|frem- den Land da-|
w: 2.Groß|Leid muss ich|jetzt tra- *|gen, das|ich al- lein|tu kla- * *|gen dem|liebs- ten Buh- len|
w: 3.Mein|Trost ob al-|len Wei- *|ben, dein|tu ich e-|wig blei- * *|ben, stet,|treu, der Eh- ren|
 B,4 z2 D2 | D2 E2 F4 | C2 F4 E2 | F4 z2 C2 | A,2 A,2 B,4 | A,2 A,4 G,F, | G,4 z2 G2 | F2 E2 (F4 | %16
w: hin. Mein|Freud ist mir|ge- nom- *|men, die|ich nit weiß|be- kom- * *|men, wo|ich im E-|
w: mein. Ach|Lieb, nun lass|mich Ar- *|men im|Her- zen dein|er- bar- * *|men, wo|ich im E-|
w: fromm. Nun|muss dich Gott|be- wah- *|ren in|al- ler Tu-|gend spa- * *|ren, bis|dass ich wie-|
 F3) EDC D2 | C2 B,2 C4 | C4 z2 G2 | F2 E2 (F4 | F3) EDC D2 | C2 B,2 C4 | C4 z4 |] %23
w: |* * lend|bin, wo|ich im E-||* * lend|bin.|
w: |* * lend|bin, wo|ich im E-||* * lend|bin.|
w: |* * der|komm, bis|dass ich wie-||* * der|komm.|
V:3
 z4 F4 | A2 B2 c4 | A4 B4 | c4 z2 c2 | c3 d _e4 | d2 c4 B2 | c4 z2 A2 | B2 A2 G2 A2 | G4 z2 G2 | %9
w: 1.Inns-|bruck, ich muss|dich las-|sen, ich|fahr da- hin|mein Stra- *|ßen, in|frem- de Land da-|hin. Mein|
w: 2.Groß|Leid muss ich|jetzt tra-|gen, das|ich al- lein|tu kla- *|gen dem|liebs- ten Buh- len|mein. Ach|
w: 3.Mein|Trost ob al-|len Wei-|ben, dein|tu ich e-|wig blei- *|ben, stet,|treu, der Eh- ren|fromm. Nun|
 A2 B2 c4 | A4 B4 | c4 z2 c2 | c3 d _e4 | d2 (c4 B2) | c4 z2 c2 | A2 B2 c4 | d2 B3 AGF | E2 F2 G4 | %18
w: Freud ist mir|ge- nom-|men, die|ich nit weiß|be- kom- *|men, wo|ich im E-||* * lend|
w: Lieb, nun lass|mich Ar-|men im|Her- zen dein|er- bar- *|men, wo|ich im E-||* * lend|
w: muss dich Gott|be- wah-|ren in|al- ler Tu-|gend spa- *|ren, bis|dass ich wie-||* * der|
 F4 z2 c2 | A2 B2 c4 | d2 B3 AGF | E2 F2 G4 | F4 z4 |] %23
w: bin, wo|ich im E-||* * lend|bin.|
w: bin, wo|ich im E-||* * lend|bin.|
w: komm, bis|dass ich wie-||* * der|komm,|
V:4
 F,8 | D,2 G,2 F,2 A,2 | A,2 G,F, G,4 | F,4 z2 F,2 | F,2 F,2 _E,4 | F,4 D,4 | C,4 z2 D,2 | %7
w: 1.Inns-|bruck, ich muss dich|las- * * *|sen, ich|fahr da- hin|mein Stra-|ßen, in|
w: 2.Groß|Leid muss ich jetzt|tra- * * *|gen, das|ich al- lein|tu kla-|gen dem|
w: 3.Mein|Trost ob al- len|Wei- * * *|ben, dein|tu ich e-|wig blei-|ben, stet,|
 G,,2 D,2 E,2 D,2 | G,,4 z2 G,2 | D,2 G,2 F,2 A,2 | A,2 G,F, G,4 | F,4 z2 F,2 | F,2 F,2 _E,4 | %13
w: frem- den Land da-|hin. Mein|Freud ist mir ge-|nom- * * *|men, die|ich nit weiß|
w: liebs- ten Buh- len|mein. Ach|Lieb, nun lass mich|Ar- * * *|men im|Her- zen dein|
w: treu, der Eh- ren|fromm. Nun|muss dich Gott be-|wah- * * *|ren in|al- ler Tu-|
 F,4 D,4 | C,4 z2 C,2 | D,2 G,2 F,4 | B,,4 z2 B,,2 | (C,2 D,2) C,4 | F,,4 z2 C,2 | D,2 G,2 F,4 | %20
w: be- kom-|men, wo|ich im E-|lend, im|E- * lend|bin, wo|ich im E-|
w: er- bar-|men, wo|ich im E-|lend, im|E- * lend|bin, wo|ich im E-|
w: gend spa-|ren, bis|dass ich wie-|der, ich|wie- * der|komm, bis|dass ich wie-|
 B,,4 z2 B,,2 | (C,2 D,2) C,4 | F,,4 z4 |] %23
w: lend, im|E- * lend|bin.|
w: lend, im|E- * lend|bin.|
w: der, ich|wie- * der|komm.|

